X:1
T:Ad Dominum
T:Ad Dominum
T:Ivo de Vento
T:Source : Liber mottetorum 4 vocum---Monacii---A.Berg---1571. Editor : André Vierendeels (05/05/14).
C:Ivo de Vento
%%score [ 1 2 [ 3 4 ] ]
L:1/8
Q:1/4=90
M:4/4
K:F
V:1 treble nm="Soprano" snm="S"
V:2 treble nm="Alto" snm="A"
V:3 treble-8 nm="Tenor 1" snm="T 1"
V:4 treble-8 nm="Tenor 2" snm="T 2"
V:1
 G4 B2 c2 | d2 f3 e d2 | c2 d2 d2 cB | A4 B3 c | d2 d2 c2 B2 | z2 A2 F3 F | D2 d2 d2 c2 | %7
w: Ad Do- mi-|num cum _ _|tri- bu- la- * *|* rer _|_ cla- ma- vi,|ad Do- mi-|num cum tri- bu-|
 d4 d2 f2 | ed d3 c/B/ c2 | d2 f2 f2 e2 | d2 c2 d2 A2 | B4 G2 A2- | AG G4 F2 | G4 z2 d2- | %14
w: la- rer cla-|ma- * * * * *|vi, et ex- au-|di- vit me, et|ex- au- di-|* * * vit|me. Do-|
 d2 d2 d2 d2- | d2 d2 f2 f2- | f2 e2 c2 d2- | dc/B/ c2 d2 B2- | B2 B2 d2 d2- | d2 c2 A2 c2- | %20
w: * mi- ne, li-|* be- ra a-|* ni- mam me-|* * * * am, Do-|* mi- ne, li-|* be- ra a-|
 c2 B2 A2 A2 | =B4 z2 c2 | d3 d d2 d2 | f4 e2 e2- | e2 f2 d4 | e2 c2 d3 c | B4 A4 | A4 B2 G2 | %28
w: * ni- mam me-|am a|la- bi- is in-|i- quis, et|_ a lin-|gua do- lo- *|* sa,|et a lin-|
 A2 A2 B4 | A4 A2 d2 | c2 A2 c4 | B4 A4 | z4 z2 c2 | B2 G2 AF B2- | BA/G/ A2 B2 d2- | d2 d2 c2 A2 | %36
w: gua do- lo-|* sa, quid|de- tur ti-|* bi,|quid|de- tur ti- * *|* * * * bi, aut|_ quid ap- po-|
 c2 c2 F4 | G4 z2 A2- | A2 A2 G2 G2 | F2 B4 G2- | GF/E/ F2 G2 B2 | B4 B2 G2 | A8 | A8 || %44
w: na- tur ti-|bi, aut|_ quid ap- po-|na- tur ti-|* * * * bi- ad|lin- guam do-|lo-|sa.|
 z2 A4 c2- | c2 G2 B2 A2- | AB c2 A2 d2- | d2 c3 B AG | A4 A2 c2 | c4 B2 G2 | A8 | A2 d3 c f2 | %52
w: Sa- git-|* tae po- ten-|* * * tis a-|* cu- * * *|* te, sa-|git- tae po-|ten-|tis a- * *|
 _e2 dc d4 | d2 d4 f2- | fe d3 c/B/ c2 | d4 d4- | d2 d2 d2 c2 | d2 B2 c2 d2 | _e2 e2 d4 | z8 | z8 | %61
w: cu- * * *|te, a- cu-||te cum|_ car- bo- ni-|bus de- so- la-|to- ri- is.|||
 z8 | B4 c4 | d2 f4 f2 | e2 d2 cF f2 | f2 e3 d d2- |"^-natural" dc/B/ c2 d4 | d4 e2 f2- | %68
w: |Heu mi-|hi qui- a|in- co- la- * *|tus me- * *|* * * * us|pro- lon- ga-|
 f2 e2 f4 | z8 | z8 | z8 | z8 | z4 z2 A2- | A2 A2 d3 d | f2 e3 d d2- |"^-natural" dc/B/ c2 d2 B2- | %77
w: * tus est,|||||mul-|* tul in- co-|la fu- * *|* * * * it a-|
 BB B4 A2- | AG/F/ G2 A4 | z8 | z8 | z8 | z2 d2 d2 d2 | f3 e/d/ ef g2- | g2 f2 g2 d2 | g2 g4 f2 | %86
w: * ni- ma me-|* * * * a,||||e- ram pa-|ci- * * * * *|* fi- cus, cum|lo- que- bar|
 g4 ^f4- | f4 z4 | z8 | z2 d2 e2 g2 | f3 e d2 f2 | e2 d2 z2 c2 | d2 f2 e2 e2 | f3 e dB d2- | %94
w: il- lis|_||im- pu- gna-|bant _ _ me|gra- tis, im-|pu- gna- bant me|gra- * * * *|
 dc c3 B/A/ B2 | c4 A4 | B2 c2 A3 B | c2 B2 AF B2- | BA G3 F/E/ F2 | G8 |] %100
w: |tis, im-|pu- gna- bant _|_ me gra- * *||tis.|
V:2
 z8 | D4 F2 G2 | A2 B4 G2- | G2 F2 G4 | A2 A2 A2 GF | E2 E2 z2 D2 | F2 G2 A4 | B4 B2 A2 | %8
w: |Ad Do- mi-|num cum tri-|* bu- la-|rer cla- ma- * *|* vi, ad|Do- mi- num|cum- tri- bu-|
 B4 A2 A2 | F4 A4 | z2 G2 G2 F2 | G3 F/E/ D4- | D2 _E2 D2 D2- | D2 D2 D4 | z2 G4 G2 | B2 B4 A2 | %16
w: la- rer cla-|ma- vi,|et ex- au-|di- * * *|* vit mz, Do-|* mi- ne,|Do- mi-|ne, li- be-|
 F2 A4 G2 | F2 E2 D4 | z2 D4 D2 | F2 F4 E2 | C2 G3 G F2 | G4 G2 G2 | B6 A2 | A2 B2 c4 | %24
w: ra a- ni-|mam me- am,|Do- mi-|ne, li- be-|ra a- ni- mam|me- am a|la- bi-|is in i-|
 c2 A2 B2 B2 | G2 A2 F4 | G4 C4 | F4 D2 E2 | C2 D2 DE FD | E4 F4 | F4 E2 C2 | D4 D2 F2 | G2 A2 G4 | %33
w: quis, et a lin-|gua do- lo-|* sa,|et a lin-|gua do- lo- * * *|* sa,|quid de- tur|ti- bi, quid|de- tur ti-|
 G2 D2 F2 F2 | F4 F4 | z8 | z4 z2 B2- | B2 B2 A2 F2 | F3 C _E2 E2 | D3 C B,A, B,C | D4 D2 G2 | %41
w: bi, quid de- tur|ti- bi,||aut|_ quid ap- po-|na- * * tur|ti- * * * * *|* bi ad|
 F4 G2 D2 | F2 ED E4 | D8 || D4 F4 |"^-natural" C2 _E2 D3 E | F2 E2 F3 G | AB A4 G2- | %48
w: lin- guam do-|lo- * * *|sa.|Sa- git-|tae po- ten- *|* tis a- *|* * * cu-|
 GF/E/ F2 E2 A2- | A2 G3 F ED | E4 F2 F2- | F2 A4 c2- | cB AG A2 A2 | B4 F2 D2 | D4 A4 | F2 B4 B2 | %56
w: * * * * te, sa-|* git- * * *|* tae po-|* ten- tis|_ _ _ _ _ a-|cu- te, a-|cu- *|te cum car-|
 B2 A2 B2 G2 | A2 B2 AF B2- | B2 A2 B2 F2- | F2 G4 A2- | A2 B4 B2 | B2 c2 B4 | G2 B3 A/G/ A2 | %63
w: bo- ni- bus de-|so- la- to- * *|* ri- is. Heu|_ mi- hi|_ qui- a|in- co- la-|tus me- * * *|
 B4 F4 | G2 B4 A2 | F2 G2 F4 | E4 F4 | B4 c4- | c2 c2 A4 | A4 A2 G2- | G2 F2 F2 G2- | G2 A2 B2 A2 | %72
w: us, qui-|a in- co-|la- tus me-|us pro-|lon- ga-|* tus est,|ha- bi- ta-|* vi cum ha-|* bi- tan- ti-|
 c4 B3 A | G3 F E4 | F2 F2 A2 A2- | AA c2 G4 | A4 F3 F | F4 F4 | D4 F4 | z8 | z8 | z4 z2 A2 | %82
w: bus Ce- *||dar, mul- tum in-|* co- la fu-|it a- ni-|ma me-|* a,,|||e-|
 A2 A2 B3 A/G/ | FG AB cB BA/G/ | A2 A2 B2 G2 | D2 _E2 D2 D2- | DC/B,/ C2 D2 A2 | %87
w: ram pa- ci- * *||* fi- cus, cum|lo- que- bar il-|* * * * lis, im-|
"^b" A2 =B2 c2 B2 | A4 D2 F2 | ED D3 C/B,/ C2 | D2 A2 F2 F2 | G3 D F2 G2 | F2 D2 G4 | A2 c2 B2 G2 | %94
w: pu- gna- bant me|gra- tis, me|gra- * * * * *|tis, im- pu- gna-|bant _ _ me|gra- tis, im-|pu- gna- bant me|
 A4 G2 D2 | E2 E2 FD A2- | AG G3 F/E/ F2 | G2 D2 F2 F2 | B,2 C2 D4 | =B,8 |] %100
w: gra- tis, im-|pu- gna- bant me gra-||tis, im- pu- gna-|bant me gra-|tis.|
V:3
 z8 | z8 | z2 G2 B2 c2 | d4 z2 g2- | g2 f3 e d2- | d2 c2 d4 | d2 d2 f2 e2 | z2 g2 g2 f2 | %8
w: ||Ad Do- mi-|num cum|_ tri- * *|* bu- la-|rer cla- ma- vi,|et es- au-|
 g3 f e2 e2 | d2 a2 d2 e2 | f2 g2 a4 | z2 d2 B2 A2 | B2 c2 A4 | B6 B2 | B4 B4- | B2 G2 d2 d2- | %16
w: di- * * vit|me, et ex- au-|di- vit me,|et ex- au-|di- vit me,|Do- mi-|ne, li-|* be- ra a-|
 d2 cB A2 B2 | A2 A2 B3 c | d4 z4 | z8 | z8 | d4 e3 e | f2 f2 f4 | f4 g4 | a2 f4 g2 | %25
w: * * * * ni-|mam me- * *|am|||a la- bi-|is in- i-|quis, et|a lin- gua|
 e2 fe de f2- | fe/d/ e2 f2 c2- | c2 d2 B2 c2 | A2 f3 e d2- |"^-natural" dc/B/ c2 d4 | z8 | %31
w: do- lo- * * * *|* * * * sa, et|_ a lin- gua|do- lo- * *|* * * * sa,||
 z2 g2 f2 d2 | ec f3 e/d/ e2 | d2 B2 c2 d2 | c4 d4 | f6 f2 | e2 c2 d4- | d2 e2 f2 c2 | z2 c4 c2 | %39
w: quid de- tur|ti- * * * * *|bi, qiuid de- tur|ti- bi,|aut quid|ap- po- na-|* tur ti- bi,|aut quid|
 A2 F2 G2 G2 | A4 B2 d2 | d2 d2 _e2 d2- |"^-natural" d2 cB c4 | d8 || z8 | z8 | z4 d4 | f4 c2 _e2 | %48
w: ap- po- na- tur|ti- bi ad|lin- guam do- lo-||sa.|||Sa-|git- tae po-|
 d4 c2 f2- | f2 e3 d d2- |"^-natural" dc/B/ c2 d2 d2 | f4 f2 a2- | a2 g3 f/e/ f2 | g4 d4 | %54
w: ten- tis a-|* cu- * *|* * * * te, sa-|git- tae po-|* ten- * * *|tis a-|
 f3 e/d/ e4 | d2 g4 g2 | g2 f2 g2 e2 | f2 g2 f2 ed | c3 c B4 | d4 e4 | f4 g4- | g2 g2 g2 f2 | %62
w: cu- * * *|te cum car-|bo- ni- bus de|so- la- to- * *|* * ris.|Heu mi-|hi qui|_ a in- co-|
"^b" g2 f2 e4 | f2 d4 d2 | c2 B2 f3 e | d2 c2 d4 | A4 d3 e | fd g4 a2 | g3 g f2 f2- | f2 f2 e4 | %70
w: la- tus me-|us, qui- a|in- co- la- *|* tus me-|us pro- *|* * * lon-|ga- tus est, ha-|* bi- ta-|
 d4 d4 | e2 e2 f4- | f2 e2 f2 dc |"^-natural" Bc d3 c/B/ c2 | d4 f4 | f2 g3 g d2 | e4 d4 | %77
w: vi cum|ha- bi- tan-|* ti- bus Ce- *||dar,- mul-|tum in- co- la|fu- it|
 d3 d c4 | B4 A2 d2- | d2 e2 f4 | d2 e4 c2 | f3 e/d/ e4 | f4 z2 Bc | de f2 c2 _e2 | d3 d d2 B2- | %85
w: a- ni- ma|me- a, cum|_ his qui|o- de- runt|pa- * * *|cem, e- *|* * * ram pa-|ci- fi- cus, cum|
 B2 c2 B2 A2 | G4 A4 | d4 e2 g2 | f2 e2 fe dc | BA AG/F/ G4 | A2 A2 B2 d2 | c2 B2 AG c2- | %92
w: _ lo- que- bar|il- lis,|im- pu- gna-|bant me gra- * * *||tis,- im- pu- gna-|bant- me- gra- * *|
 cB/A/ B2 c2 c2 | c2 A2 d3 c/d/ | e2 f2 d4 | c2 c2 d2 f2 | _e2 c2 d4 | G2 B2 c2 d2 | G2 G2 A4 | %99
w: * * * tis, im- pu-|gna- bant _ _ _|_ me gra-|tis, im- pu- gna-|bant me gra-|tis, im- pu- gna-|bant me gra-|
 G8 |] %100
w: tis.|
V:4
 z8 | z8 | z8 | z8 |"^-natural" D4 F2 G2 | A4 B4 | B2 B2 A4 | G2 G2 d4 | G4 A4 | z2 d2 d2 ^c2 | %10
w: ||||Ad Do- mi-|num cum|tri- bu- la-|rer cla- ma-|* vi,|et ex- au-|
 d2 _e2 d4 | G4 G2 ^F2 | G2 C2 D4 | G6 G2 | G8 | z8 | z8 | z4 z2 G2- | G2 G2 B2 B2- | %19
w: di- vit me,|et ex- au-|di- vit ma,|Do- mi-|ne,|||Do-|* mi- ne li-|
 B2 A2 F2 A2- | A2 B2 c2 d2 | G2 G2 c3 c | B2 B2 d4- | d4 c2 c2- | c2 d2 B4 | c2 A2 B3 A | G4 F4 | %27
w: * be- ra a-|* ni- mam me-|am a la- bi-|is in i-|* quis, et|_ a lin-|gua do- lo- *|* sa,|
 F4 G2 C2 | F2 D2 d4 | A4 z2 B2 | A2 F2 A4 | G4 d4 | c2 A2 c4 | G2 G2 F2 D2 | F4 B2 B2- | %35
w: et a lin-|gua do- lo-|sa, quid|de- tur ti-|bi, quid|de- tur ti-|bi, quid de- tur|ti- bi, aut|
 B2 B2 A2 F2 | A2 A2 B3 A | G4 F2 F2- |"^SECONDA\n    PARS" F2 F2 _E2 C2 | D2 D2 _E4 | D4 G4 | %41
w: _ quid ap- po-|na- tur ti- *|* bi, aut|_ quid ap- po-|na- tur ti-|bi ad|
 B4 G2 B2 | A8 | D8 || z8 | z8 | z8 | z8 | z4 A4 | c4 G2 B2 |"^-natural" A4 D4 | d4 f4 | %52
w: lin- guam do-|lo-|sa.|||||Sa-|git- rae po-|ten- tis,|sa- git-|
 c2 _e2 d4 | G2 G2 B4- | B4 A4 | z8 | z8 | z8 | z8 | B4 c4 | d4 _e4- | e2 _e2 e2 d2 | _e2 d2 c4 | %63
w: tae po- ten-|tis a- cu-|* te.|||||Heu mi-|hi qui-|* a in- co-|la- tus me-|
 B4 z4 | z8 | z8 | z4 z2 B2- | B2 G2 c2 F2 | c4 z2 d2- | d2 d2 c4 | B4 B4 | c3 c d2 d2 | A4 G4- | %73
w: us,|||pro-|* lon- ga- tus|est, ha-|* bi- ta-|vi cum|ha- bi- tan- ti-|bus Ce-|
 G4 A4 | D4 D2 d2- | dd c2 B4 | A4 B3 B | B4 F4 | G4 D4 | G4 A2 B2- | B2 G2 A4 | %81
w: * dar,|mul- tum in-|* co- la- fu-|it a- ni-|ma me-|* a,|cum his qui|_ o- de-|
"^-natural" D2 d3 c/B/ c2 | d4 z4 | z8 | z4 G4- |"^-natural" G2 C2 G2 D2 | _E4 D4 | z4 z2 G2 | %88
w: runt pa- * * *|cem,||cum|_ lo- que- bar|il- lis,|im-|
 A2 c2 B3 A | G2 F2 E4 | D4 z2 D2 | E2 G2 F2 E2 | D4 C4 |"^#""^#" F4 G2 B2 | A2 F2 G4 | C4 z4 | %96
w: pu- gna- bant _|_ me gra-|tis, im-|pu- gna- bant me|gra- tis,|im- pu- gna-|bant me gra-|tis,|
 z4 z2 D2 | E2 G2 F2 D2 | _E4 D4 | G8 |] %100
w: im-|pi- gna- bant me|gra- *|tis.|

